X:375
T: When the Cock Crows It Is Day
T: T\'a an Coileach ag Fogairt an Lae
S: "Johnny O'Leary of Sliabh Luachra" (#329)
Z: B.Black
L: 1/8
M: 6/8
R: jig
K: G
GBB BAG|d3 d2B|GBB BAG|A2A ABA|
GBB BAG dBd e/f/ge|dBG AFD|1 G3 G2F :|2\
G3 GBd||
gdd gdB|c3 c3|gdd gdB|A/B/AA ABd|
gdd gdd|c2c e/f/ge|dBG|AFD|1 G3 G2B :|2\
G3 G3||
